X: 25566
T: Marion MacLean Of Eoligarry
R: waltz
M: 3/4
K: Dmajor
|:FE|D3 E FA|E4 FE|D2 d2 c2|B4 dB|AG FD AF|E4 DE|F2 G3 F|
E4 FE|D3 E FA|E4 FE|D2 d2 c2|B4 AG|F2 A2 F2|E4 D2|D6-|D4:|
fg|a3 d f2|e4 dc|d2 c2 A2|B4 AG|FA d2 f2|e4 dc|Bd f2 b2|
a4 fg|a3 d f2|e4 dc|d2 c2 A2|B4 AG|F2 A2 F2|E4 D2|D6-|D4 fg|
a3 d f2|e4 dc|d2 c2 A2|B4 AG|FA d2 f2|e4 dc|Bd f2 b2|a4 AG|
F3 E FG|A4 Bc|d2 c2 A2|B4 AG|F2 A2 F2|E4 D2|D6-|D4|

